!!!COM:	Debussy
!!!OTL:	179_Deb-10/24/4-16
**kern	**kern	**dynam	**kern	**dynam
*part2	*part2	*part2	*part1	*part1
*staff3	*staff2	*	*staff1	*
*I"Piano	*	*	*I"Soprano Solo	*
*I'Pno.	*	*	*I'S. Solo	*
*clefG2	*clefG2	*	*clefG2	*
*k[f#c#g#d#]	*k[f#c#g#d#]	*	*k[f#c#g#d#]	*
*E:	*E:	*	*E:	*
*M3/4	*M3/4	*	*M3/4	*
=1	=	=	=	=
4c# 4d#	(8gnL	pp	4r	.
.	8bJ)	.	.	.
[8c#L	4r	.	8r	.
8c#J_ [8d#	.	.	8b	p
4c#] 4d#]	(8gL	.	8bL	.
.	8bJ)	.	8bJ	.
=2	=2	=2	=2	=2
[8c#L	4r	.	4a	.
8c#J_ [8d#	.	.	.	.
4c#] 4d#]	(8f#L	.	8aL	.
.	8aJ)	.	8aJ	.
[8c#L	4r	.	8aL	.
8c#J_ [8d#	.	.	8aJ	.
=3	=3	=3	=3	=3
4c#] 4d#]	(8gnL	.	2gn	.
.	8bJ)	.	.	.
[8c#L	4r	.	.	.
8c#J_ [8d#	.	.	.	.
4c#] 4d#]	(8gL	.	4d#	.
.	8bJ)	.	.	.
=4	=4	=4	=4	=4
[8c#L	4r	.	4r	.
8c#J_ [8d#	.	.	.	.
4c#] 4d#]	(8f#L	.	4d#	.
.	8aJ)	.	.	.
[8c#L	4r	.	8f#L	.
8c#J_ [8d#	.	.	8aJ	.
=5	=5	=5	=5	=5
4c#] 4d#]	(8f#L	.	4cc#	.
.	8aJ)	.	.	.
[8c#L	4r	.	8aL	<
8c#J_ [8d#	.	.	8aJ	.
4c#] 4d#]	(8f#L	.	8bL	.
.	8aJ)	.	8cc#J	[[
*clefF4	*	*	*	*
=6	=6	=6	=6	=6
!!linebreak:original
(4B	8c#L	.	[2.dd#	[[
.	8d#J	.	.	.
4Gn	8gnL	.	.	.
.	8bJ	.	.	.
!	!LO:TX:t=dim.	!	!	!
4D#	(8c#L	.	.	.
.	8d#J	.	.	.
=7	=7	=7	=7	=7
4BB	8gnL	.	4dd#]	[
.	8bJ)	.	.	.
4GGn	(8c#L	.	4r	.
.	8d#J	.	.	.
4DD#)	8gL	.	4r	.
.	8bJ)	.	.	.
*clefG2	*	*	*	*
=8	=8	=8	=8	=8
[8c#L	(8c#L	.	4r	.
8c#J_ [8d#	8d#J	.	.	.
4c#] 4d#]	8f#L	.	4ff#	.
.	8aJ)	.	.	.
[8c#L	(8c#L	.	4dd#	.
8c#J_ [8d#	8d#J	.	.	.
=9	=9	=9	=9	=9
4c#] 4d#]	8gnL	.	8cc#L	.
.	8bJ)	.	8aJ	.
[8c#L	(8c#L	.	8aL	.
8c#J_ [8d#	8d#J	.	8aJ	.
4c#] 4d#]	8gL	.	8bL	.
.	8bJ)	.	8cc#J	.
=10	=10	=10	=10	=10
!!linebreak:original
[8c#L	(8c#L	.	2b	.
8c#J_ [8e	8d#J	.	.	.
4c#] 4e]	8gnL	.	.	.
.	8bJ)	.	.	.
[8c#L	(8c#L	.	4gn	.
8c#J_ [8e	8d#J	.	.	.
=11	=11	=11	=11	=11
4c#] 4e]	8gnL	.	4r	.
.	8bJ)	.	.	.
[8c#L	(8c#L	.	2dd#'~^	.
8c#J_ [8d#	8d#J	.	.	.
4c#] 4d#]	8gL	.	.	.
.	8bJ)	.	.	.
*clefF4	*	*	*	*
=12	=12	=12	=12	=12
[2.GG#X [2.D#X	(8BL	pp	8cc#L	.
.	8d#J	.	8bJ	.
.	8g#XL	.	8a#XL	.
.	8bJ)	.	8g#J	.
.	(8BL	.	8f#L	.
.	8d#J	.	[8eJ	.
=13	=13	=13	=13	=13
2GG#X] 2D#X]	8g#L	.	8eL]	.
.	8bJ)	.	8f#J	.
.	(8BL	.	4d#	.
.	8f#J	.	.	.
4AAA 4EE 4C# 4c# 4e	8g#L	.	4c#	.
.	8cc#J)	.	.	.
==	==	==	==	==
*-	*-	*-	*-	*-
!!!system-decoration: s1{(s2,s3)}
!!!ONB: Converted from MusicXML on 2020/01/17
